svgs/semeru_trans.svg

<svg width="192" height="192" viewBox="0 0 192 192" fill="none" xmlns="http://www.w3.org/2000/svg">
<path d="M96 96L103.661 65.3499L140.339 52.6501L148 22L74.6434 47.3997L59.3217 108.7L96 96ZM96 96L132.678 83.3002L117.357 144.6L44 170L51.6609 139.35L88.3391 126.65L96 96Z" stroke="black" stroke-width="12" stroke-linejoin="round"/>
</svg>

<svg xmlns="http://www.w3.org/2000/svg" width="192" height="192" fill="none" viewBox="0 0 192 192"><path stroke="#000" stroke-linejoin="round" stroke-width="12" d="m96 96 7.661-30.65 36.678-12.7L148 22 74.643 47.4l-15.321 61.3zm0 0 36.678-12.7-15.321 61.3L44 170l7.66-30.65 36.68-12.7z"/></svg>
